X:1
T:No Room in Heaven
T:No Room in Heaven
T:Isaiah Baltzell
T:William Orcutt Cushing, 1880
T:Public Domain Courtesy of the Cyber Hymnal™
T:Public Domain Courtesy of the Cyber Hymnal™
C:Isaiah Baltzell
Z:Public Domain
Z:Courtesy of the Cyber Hymnal™
%%score ( 1 2 ) ( 3 4 )
L:1/8
Q:1/4=90
M:6/8
K:Ab
V:1 treble 
V:2 treble 
V:3 bass 
V:4 bass 
V:1
 [CE] | [CE][=B,=D][CE] ([Ec][_D_B])[CA] | ([EG][DF])[DF] [CE]2 [CE] | %3
w: 1.~How|sad it would be,~if * when|thou * didst call, All|
w: 2.~How|sad it would be, * the|harvest * all past, The|
w: 3.~Oh,|haste thee, and fly, * while|mercy * is near, Re-|
 [EA][DG][CA] ([Ec][EB])[EA] | [Ec] [EB]4 E | [CE][=B,=D][CE] [Ec][_D_B][CA] | %6
w: hope- less and un- * for-|giv- en, The|an- gel that stands at the|
w: bright sum- mer days * all|o- ver; To|know that the reap- ers had|
w: mem- ber the love~that * He|gave you; The|love that hath sought thee is|
 [CA][DB][Ec] !fermata![Fd]2 [DF] | [CE][CA][DB] !fermata![Ec]2 [DB] | [DB] [CA]4 z || %9
w: beau- ti- ful gate, Should|an- swer, “No room in|Hea- ven.”|
w: ga- thered the grain, And|left thee a- lone for-|ev- er.|
w: seek- ing thee still, And|Je- sus now waits to|save you.|
"^Refrain" [Ec]2 z [Ec]2 z | [Ec][Ed][Ee] [FB]2 z | [EB]3 [EB]2 [EB] | [EB][Ec][Ed] [Ec]2 z | %13
w: ||||
w: Sad, sad,|sad would it be!|No room in|Hea- ven for thee!|
w: ||||
 [Ae]3 [Ac]3 | [FA]3 [DF]2 [DF] | [CE]2 [CA] [Ec]<[Ec][DB] | [CA]3- [CA]2 z | [DF]3 [CE]3 | %18
w: |||||
w: No room,|no room, No|room in Hea- ven for|thee! *|No room,|
w: |||||
 [DF]3 [CE]2 [CE] | [EG]2 [EG] [EG][CA][EB] | [CA]3- [CA]2 z |] %21
w: |||
w: no room, No|room in Hea- ven for|thee! *|
w: |||
V:2
 x | x6 | x6 | x6 | x5 E | x6 | x6 | x6 | x6 || x6 | x6 | x6 | x6 | x6 | x6 | x6 | x6 | x6 | x6 | %19
 x6 | x6 |] %21
V:3
 [A,,A,] | [A,,A,][A,,A,][A,,A,] ([A,,A,][A,,A,])[A,,A,] | ([D,A,][D,A,])[D,A,] [A,,A,]2 [A,,A,] | %3
 [C,A,][B,,E,][A,,E,] ([A,,A,][B,,G,])[C,A,] | [E,A,] [E,G,]4 [E,G,] | %5
 [A,,A,][A,,A,][A,,A,] [A,,A,][A,,A,][A,,A,] | [A,,A,][A,,A,][A,,A,] !fermata![D,A,]2 [D,A,] | %7
 [E,A,][E,A,][E,G,] !fermata![E,G,]2 [E,G,] | [A,,A,] [A,,A,]4 z || A,2 z A,2 z | %10
 A,[A,B,][A,C] [D,D]2 z | [E,G,]3 [E,G,]2 [E,G,] | [E,G,][E,A,][E,B,] A,2 z | [A,C]3 [A,E]3 | %14
 [D,D]3 [D,A,]2 [D,A,] | [E,A,]2 [E,A,] [E,A,]<[E,A,][E,G,] | [A,,A,]3- [A,,A,]2 z | %17
 [D,A,]3 [A,,A,]3 | [D,A,]3 [A,,A,]2 [A,,A,] | [E,B,]2 [E,B,] [E,B,][E,A,][E,G,] | %20
 [A,,A,]3- [A,,A,]2 z |] %21
V:4
 x | x6 | x6 | x6 | x6 | x6 | x6 | x6 | x6 || A,2 A,2 x2 | A, x5 | x6 | x3 A,2 x | x6 | x6 | x6 | %16
 x6 | x6 | x6 | x6 | x6 |] %21

